X: 1729
T: MITCHELL'S HORNPIPE
M:C|
L:1/8
B:O'NEILL'S 1729
N:"collected by J. O'Neill"
Z:Transcribed by A. LEE WORMAN
K:D
A2|d>cd>c (B<d) A2|d>cd>c (B<d) A2|d>cd>e f>df>g|a>ge>c d>AB>c|
d>cd>c (B<d) A2|d>cd>c (B<d) A2|d>cd>e f>df>g|a>ge>c d2:|
|:d>e|f2 f2 e2 e2|d2 d2 c3 z|B>AB>d (c<A) F2|B>AB>d (c<A) F2|
f2 f2 e2 e2|d2 d2 c3 z|d>cd>e f>df>g|a>ge>c d2:|


